src/16/actions/text_letter_spacing.svg

<svg xmlns="http://www.w3.org/2000/svg" width="16" height="16" viewBox="0 0 16 16">
 <defs>
  <style id="current-color-scheme" type="text/css">
   .ColorScheme-Text { color:#565656; } .ColorScheme-Highlight { color:#5294e2; }
  </style>
 </defs>
 <path style="fill:currentColor" class="ColorScheme-Text" d="M 1 1 L 1 6 L 3.5 6 C 4.3284 6 5 5.3284 5 4.5 C 5 3.9667 4.7318 3.48465 4.3125 3.21875 C 4.428 3.00615 4.5 2.7589 4.5 2.5 C 4.5 1.6716 3.8284 1 3 1 L 1 1 z M 11 1 L 11 6 L 13.5 6 C 14.328 6 15 5.3284 15 4.5 L 15 2.5 C 15 1.6716 14.328 1 13.5 1 L 11 1 z M 2 2 L 3 2 C 3.2761 2 3.5 2.2239 3.5 2.5 C 3.5 2.7761 3.2761 3 3 3 L 2 3 L 2 2 z M 12 2 L 13.5 2 C 13.776 2 14 2.2239 14 2.5 L 14 4.5 C 14 4.7761 13.776 5 13.5 5 L 12 5 L 12 2 z M 6 3 L 6 4 L 9 4 L 9 3 L 6 3 z M 2 4 L 3.5 4 C 3.7761 4 4 4.2239 4 4.5 C 4 4.7761 3.7761 5 3.5 5 L 2 5 L 2 4 z M 1 8 L 1 10 L 5 10 L 5 8 L 1 8 z M 7 8 L 7 10 L 9 10 L 9 8 L 7 8 z M 11 8 L 11 10 L 15 10 L 15 8 L 11 8 z M 6 12 L 2 13.5 L 6 15 L 6 12 z M 10 12 L 10 15 L 14 13.5 L 10 12 z M 8 13 C 7.7239 13 7.5 13.224 7.5 13.5 C 7.5 13.776 7.7239 14 8 14 C 8.2761 14 8.5 13.776 8.5 13.5 C 8.5 13.224 8.2761 13 8 13 z"/>
</svg>

<svg xmlns="http://www.w3.org/2000/svg" width="16" height="16"><defs><style id="current-color-scheme" type="text/css"></style></defs><path d="M1 1v5h2.5A1.5 1.5 0 0 0 5 4.5c0-.533-.268-1.015-.688-1.281.116-.213.188-.46.188-.719A1.5 1.5 0 0 0 3 1H1zm10 0v5h2.5A1.5 1.5 0 0 0 15 4.5v-2A1.5 1.5 0 0 0 13.5 1H11zM2 2h1a.5.5 0 0 1 0 1H2V2zm10 0h1.5a.5.5 0 0 1 .5.5v2a.5.5 0 0 1-.5.5H12V2zM6 3v1h3V3H6zM2 4h1.5a.5.5 0 0 1 0 1H2V4zM1 8v2h4V8H1zm6 0v2h2V8H7zm4 0v2h4V8h-4zm-5 4l-4 1.5L6 15v-3zm4 0v3l4-1.5-4-1.5zm-2 1a.5.5 0 1 0 0 1 .5.5 0 0 0 0-1z" fill="currentColor" color="#565656"/></svg>
